front/pasteleria2.0/build/img/facebook.svg

<svg xmlns="http://www.w3.org/2000/svg" width="512" height="512" shape-rendering="geometricPrecision" text-rendering="geometricPrecision" image-rendering="optimizeQuality" fill-rule="evenodd" clip-rule="evenodd"><path fill="#475993" d="M56.5-.5h398c30.667 7.333 49.667 26.333 57 57v398c-7.333 30.667-26.333 49.667-57 57h-122v-183c21.336.167 42.669 0 64-.5 6.167-.833 9.667-4.333 10.5-10.5 2.35-18.98 4.516-37.98 6.5-57 .727-6.388-1.94-10.554-8-12.5-24.331-.5-48.664-.667-73-.5-.167-20.336 0-40.669.5-61 1.72-14.72 9.887-23.22 24.5-25.5a671.459 671.459 0 0146-2c4.27-1.27 6.77-4.104 7.5-8.5a702.15 702.15 0 000-53c-.833-4.833-3.667-7.667-8.5-8.5a930.454 930.454 0 00-61 0c-49.326 4.899-78.159 31.732-86.5 80.5a1098.838 1098.838 0 00-1.5 78 488.135 488.135 0 00-53 1.5c-3.053 2.051-4.886 4.885-5.5 8.5a571.99 571.99 0 001 64c2.216 3.527 5.383 5.694 9.5 6.5 15.997.5 31.997.667 48 .5v183h-197c-30.667-7.333-49.667-26.333-57-57v-398c7.333-30.667 26.333-49.667 57-57z" opacity=".996"/></svg>

<?xml version="1.0" encoding="UTF-8"?>
<!DOCTYPE svg PUBLIC "-//W3C//DTD SVG 1.1//EN" "http://www.w3.org/Graphics/SVG/1.1/DTD/svg11.dtd">
<svg xmlns="http://www.w3.org/2000/svg" version="1.1" width="512px" height="512px" style="shape-rendering:geometricPrecision; text-rendering:geometricPrecision; image-rendering:optimizeQuality; fill-rule:evenodd; clip-rule:evenodd" xmlns:xlink="http://www.w3.org/1999/xlink">
<g><path style="opacity:0.996" fill="#475993" d="M 56.5,-0.5 C 189.167,-0.5 321.833,-0.5 454.5,-0.5C 485.167,6.83333 504.167,25.8333 511.5,56.5C 511.5,189.167 511.5,321.833 511.5,454.5C 504.167,485.167 485.167,504.167 454.5,511.5C 413.833,511.5 373.167,511.5 332.5,511.5C 332.5,450.5 332.5,389.5 332.5,328.5C 353.836,328.667 375.169,328.5 396.5,328C 402.667,327.167 406.167,323.667 407,317.5C 409.35,298.52 411.516,279.52 413.5,260.5C 414.227,254.112 411.56,249.946 405.5,248C 381.169,247.5 356.836,247.333 332.5,247.5C 332.333,227.164 332.5,206.831 333,186.5C 334.72,171.78 342.887,163.28 357.5,161C 372.802,159.808 388.135,159.141 403.5,159C 407.77,157.73 410.27,154.896 411,150.5C 411.667,132.833 411.667,115.167 411,97.5C 410.167,92.6667 407.333,89.8333 402.5,89C 382.167,88.3333 361.833,88.3333 341.5,89C 292.174,93.8986 263.341,120.732 255,169.5C 253.577,195.469 253.077,221.469 253.5,247.5C 235.764,247.041 218.098,247.541 200.5,249C 197.447,251.051 195.614,253.885 195,257.5C 194.139,278.857 194.472,300.19 196,321.5C 198.216,325.027 201.383,327.194 205.5,328C 221.497,328.5 237.497,328.667 253.5,328.5C 253.5,389.5 253.5,450.5 253.5,511.5C 187.833,511.5 122.167,511.5 56.5,511.5C 25.8333,504.167 6.83333,485.167 -0.5,454.5C -0.5,321.833 -0.5,189.167 -0.5,56.5C 6.83333,25.8333 25.8333,6.83333 56.5,-0.5 Z"/></g>
</svg>
